public/images/hashed/6bcacf31df5f44bf9f275a5b255fe6b6.svg

<?xml version="1.0" encoding="UTF-8"?>
<svg width="80px" height="80px" viewBox="0 0 80 80" version="1.1" xmlns="http://www.w3.org/2000/svg" xmlns:xlink="http://www.w3.org/1999/xlink">
    <!-- Generator: Sketch 64 (93537) - https://sketch.com -->
    <title>Icon-Architecture/64/Arch_AWS-WorkSpaces_64</title>
    <desc>Created with Sketch.</desc>
    <defs>
        <linearGradient x1="0%" y1="100%" x2="100%" y2="0%" id="linearGradient-1">
            <stop stop-color="#055F4E" offset="0%"></stop>
            <stop stop-color="#56C0A7" offset="100%"></stop>
        </linearGradient>
    </defs>
    <g id="Icon-Architecture/64/Arch_AWS-WorkSpaces_64" stroke="none" stroke-width="1" fill="none" fill-rule="evenodd">
        <g id="Icon-Architecture-BG/64/End-User-Computing" fill="url(#linearGradient-1)">
            <rect id="Rectangle" x="0" y="0" width="80" height="80"></rect>
        </g>
        <path d="M62.987,49.3051673 L60.389,47.8051673 L59.389,49.5371673 L61.987,51.0371673 L62.987,49.3051673 Z M37.692,30.5331673 L39.692,30.5331673 L39.692,26.6301673 L37.692,26.6301673 L37.692,30.5331673 Z M30.178,44.6871673 L31.309,46.3371673 L35.514,43.4511673 L34.383,41.8021673 L30.178,44.6871673 Z M32.787,19.1111673 L26.042,16.1131673 L14.992,22.0631673 L21.022,25.8191673 L32.787,19.1111673 Z M20,27.5381673 L14,23.8011673 L14,41.4461673 L20,45.1961673 L20,27.5381673 Z M35.495,19.8681673 L22,27.5631673 L22,47.0001673 C22,47.3641673 21.802,47.6981673 21.484,47.8741673 C21.334,47.9581673 21.167,48.0001673 21,48.0001673 C20.815,48.0001673 20.632,47.9491673 20.469,47.8481673 L12.469,42.8481673 C12.177,42.6651673 12,42.3451673 12,42.0001673 L12,22.0001673 C12,21.6371673 12.197,21.3021673 12.514,21.1251673 C12.518,21.1231673 12.523,21.1231673 12.527,21.1201673 L12.526,21.1191673 L25.526,14.1191673 C25.799,13.9721673 26.124,13.9611673 26.406,14.0861673 L35.406,18.0861673 C35.751,18.2391673 35.979,18.5731673 35.999,18.9501673 C36.017,19.3261673 35.823,19.6821673 35.495,19.8681673 L35.495,19.8681673 Z M58.657,46.8051673 L56.088,45.2911673 L55.058,47.0051673 L57.657,48.5371673 L58.657,46.8051673 Z M66,31.1301673 L48.966,41.0141673 L50.087,41.6871673 L49.057,43.4021673 L48,42.7661673 L48,63.2171673 L65.042,52.8011673 L63.719,52.0371673 L64.719,50.3051673 L66,51.0441673 L66,31.1301673 Z M64.994,29.4021673 L46.991,19.1461673 L39.692,23.1601673 L39.692,25.0691673 L37.692,25.0691673 L37.692,24.2601673 L29.007,29.0371673 L37.692,34.2491673 L37.692,32.0941673 L39.692,32.0941673 L39.692,35.4491673 L47.008,39.8391673 L64.994,29.4021673 Z M46,41.5661673 L39.692,37.7821673 L39.692,40.0581673 C39.692,40.3881673 39.53,40.6971673 39.258,40.8831673 L37.196,42.2971673 L36.065,40.6481673 L37.692,39.5321673 L37.692,36.5811673 L28,30.7661673 L28,46.1821673 L28.496,45.8421673 L29.627,47.4921673 L28,48.6081673 L28,52.4331673 L46,63.2341673 L46,41.5661673 Z M68,29.3941673 L68,29.3941673 L68,52.7761673 C68,53.1241673 67.818,53.4481673 67.521,53.6291673 L47.521,65.8531673 L47.519,65.8501673 C47.509,65.8561673 47.503,65.8651673 47.493,65.8701673 C47.34,65.9571673 47.17,66.0001673 47,66.0001673 C46.822,66.0001673 46.643,65.9521673 46.485,65.8571673 L26.485,53.8571673 C26.184,53.6771673 26,53.3511673 26,53.0001673 L26,29.0001673 L26.002,29.0001673 C26.002,28.9931673 26,28.9881673 26,28.9811673 C26.007,28.6231673 26.204,28.2961673 26.518,28.1241673 L46.518,17.1241673 C46.822,16.9551673 47.193,16.9591673 47.495,17.1311673 L67.495,28.5251673 C67.805,28.7021673 67.999,29.0321673 68,29.3901673 L68,29.3941673 Z M53.343,45.9761673 L50.771,44.4311673 L51.8,42.7171673 L54.373,44.2611673 L53.343,45.9761673 Z" id="AWS-WorkSpaces_Icon_64_Squid" fill="#FFFFFF"></path>
    </g>
</svg>

<svg xmlns="http://www.w3.org/2000/svg" width="80" height="80"><defs><linearGradient id="a" x1="0%" x2="100%" y1="100%" y2="0%"><stop offset="0%" stop-color="#055F4E"/><stop offset="100%" stop-color="#56C0A7"/></linearGradient></defs><g fill="none" fill-rule="evenodd"><path fill="url(#a)" d="M0 0h80v80H0z"/><path fill="#FFF" d="m62.987 49.305-2.598-1.5-1 1.732 2.598 1.5 1-1.732ZM37.692 30.533h2V26.63h-2v3.903Zm-7.514 14.154 1.131 1.65 4.205-2.886-1.131-1.649-4.205 2.885Zm2.609-25.576-6.745-2.998-11.05 5.95 6.03 3.756 11.765-6.708ZM20 27.538l-6-3.737v17.645l6 3.75V27.538Zm15.495-7.67L22 27.563V47a.999.999 0 0 1-1 1c-.185 0-.368-.05-.531-.152l-8-5A1 1 0 0 1 12 42V22c0-.363.197-.698.514-.875.004-.002.009-.002.013-.005h-.001l13-7a1 1 0 0 1 .88-.034l9 4a1.001 1.001 0 0 1 .089 1.782Zm23.162 26.937-2.569-1.514-1.03 1.714 2.599 1.532 1-1.732ZM66 31.13l-17.034 9.884 1.121.673-1.03 1.715L48 42.766v20.451l17.042-10.416-1.323-.764 1-1.732 1.281.74V31.13Zm-1.006-1.728L46.991 19.146l-7.299 4.014v1.91h-2v-.81l-8.685 4.777 8.685 5.212v-2.155h2v3.355l7.316 4.39 17.986-10.437ZM46 41.566l-6.308-3.784v2.276c0 .33-.162.64-.434.825l-2.062 1.414-1.131-1.649 1.627-1.116v-2.95L28 30.765v15.416l.496-.34 1.131 1.65L28 48.608v3.825l18 10.801V41.566Zm22-12.172v23.382a1 1 0 0 1-.479.853l-20 12.224-.002-.003c-.01.006-.016.015-.026.02a.996.996 0 0 1-1.008-.013l-20-12A.999.999 0 0 1 26 53V29h.002L26 28.981a.999.999 0 0 1 .518-.857l20-11a.997.997 0 0 1 .977.007l20 11.394c.31.177.504.507.505.865v.004ZM53.343 45.976l-2.572-1.545 1.029-1.714 2.573 1.544-1.03 1.715Z"/></g></svg>
